X: 1
T: Fair Jenny's Jig
C: Peter Barnes
R: jig
Z: 1997 by John Chambers <jc@trillian.mit.edu>
M: 6/8
Q: 3/8=120
K: D
A | "D"f3 fgf | "A7"ecA ecA | "G"Bcd "A7"ecA | "G"Bcd "A7"e2A |
    "D"f3 fed | "A7"ecA ecA | "G"Bcd "A7"e2A | ABc "D"d2 :|
A | "G"B3 B=cB | GBB B=cB | "D"ADD dDD | cDD ADD |
    "G"B3 B=cB | GBB B=cB | "A7"AEA ABc | "D"dAF D2 :|
